src/icons/svg/ticket-flow.svg

<svg width="24px" height="24px" viewBox="0 0 24 24" version="1.1" xmlns="http://www.w3.org/2000/svg">
    <path d="M4.77220203,20.2350184 C3.94275661,20.2364891 3.14530437,19.850765 2.5482642,19.1593093 C1.94879294,18.4874506 1.60774978,17.5474801 1.60617942,16.5627703 C1.61778044,15.5752201 1.95685436,14.6340019 2.5482642,13.9476845 C3.15742596,13.2555757 3.96450342,12.8705435 4.80309006,12.8719755 L6.34749133,12.8719755 C6.77396597,12.8719755 7.11969197,12.4567933 7.11969197,11.9446401 C7.11969197,11.4324869 6.77396597,11.0173048 6.34749133,11.0173048 L4.80309006,11.0173048 C3.54512552,10.9618752 2.32253003,11.5235196 1.41653806,12.5730424 C0.510546087,13.6225652 -0.000844399958,15.0696118 1.04662473e-06,16.581317 C0.0507167699,19.7085825 2.19884959,22.197031 4.80309006,22.1453293 L4.80309006,24 L7.18146802,21.1623538 L4.77220203,18.3988943 L4.77220203,20.2350184 Z M13.5907333,18.3988943 L10.3783787,18.3988943 C9.09895475,18.3988943 8.06177675,19.6444409 8.06177675,21.1809005 C8.06177675,22.71736 9.09895475,23.9629066 10.3783787,23.9629066 L13.5907333,23.9629066 C14.8701572,23.9629066 15.9073352,22.71736 15.9073352,21.1809005 C15.9073352,19.6444409 14.8701572,18.3988943 13.5907333,18.3988943 L13.5907333,18.3988943 Z M13.5907333,22.1082358 L10.3783787,22.1082358 C9.95190403,22.1082358 9.60617802,21.6930536 9.60617802,21.1809005 C9.60617802,20.6687473 9.95190403,20.2535651 10.3783787,20.2535651 L13.5907333,20.2535651 C14.0172079,20.2535651 14.362934,20.6687473 14.362934,21.1809005 C14.362934,21.6930536 14.0172079,22.1082358 13.5907333,22.1082358 Z M13.5907333,0.000560506535 L10.3783787,0.000560506535 C9.75575084,-0.0143426862 9.1537065,0.268468014 8.70475099,0.786748134 C8.25579547,1.30502825 7.99672417,2.01630073 7.98455669,2.76401992 C7.99672417,3.51173912 8.25579547,4.22301159 8.70475099,4.74129171 C9.1537065,5.25957183 9.75575084,5.54238253 10.3783787,5.52747934 L13.5907333,5.52747934 C14.2133611,5.54238253 14.8154055,5.25957183 15.264361,4.74129171 C15.7133165,4.22301159 15.9723878,3.51173912 15.9845567,2.76401992 C15.9723878,2.01630073 15.7133165,1.30502825 15.264361,0.786748134 C14.8154055,0.268468014 14.2133611,-0.0143426862 13.5907333,0.000560506535 L13.5907333,0.000560506535 Z M13.5907333,3.709902 L10.3783787,3.709902 C9.94918853,3.72040263 9.59203542,3.31624215 9.57529,2.80111334 C9.57934609,2.55023408 9.66624565,2.31157097 9.81686286,2.1376516 C9.96748008,1.96373224 10.1694708,1.86881055 10.3783787,1.87377796 L13.5907333,1.87377796 C14.0172079,1.87377796 14.362934,2.28896015 14.362934,2.80111334 C14.362934,3.31326652 14.0172079,3.72844871 13.5907333,3.72844871 L13.5907333,3.709902 Z M13.5907333,9.19972742 L10.3783787,9.19972742 C9.09895475,9.19972742 8.06177675,10.445274 8.06177675,11.9817335 C8.06177675,13.5181931 9.09895475,14.7637397 10.3783787,14.7637397 L13.5907333,14.7637397 C14.8701572,14.7637397 15.9073352,13.5181931 15.9073352,11.9817335 C15.9073352,10.445274 14.8701572,9.19972742 13.5907333,9.19972742 L13.5907333,9.19972742 Z M13.5907333,12.9090689 L10.3783787,12.9090689 C9.94918853,12.9195695 9.59203542,12.5154091 9.57529,12.0002803 C9.59189549,11.4821804 9.94663281,11.0725612 10.3783787,11.0729446 L13.5907333,11.0729446 C14.0197769,11.0728458 14.3699654,11.4851411 14.378378,12.0002803 C14.3535731,12.4978312 14.0056919,12.8828352 13.5907333,12.8719755 L13.5907333,12.9090689 Z M19.1969099,1.83668455 L17.5598446,1.83668455 C17.13337,1.83668455 16.787644,2.25186674 16.787644,2.76401992 C16.787644,3.27617311 17.13337,3.6913553 17.5598446,3.6913553 L19.1969099,3.6913553 C20.0354966,3.6899233 20.842574,4.07495548 21.4517358,4.76706433 C22.0539795,5.44066425 22.3960175,6.38454255 22.3960175,7.37287673 C22.3960175,8.36121092 22.0539795,9.30508922 21.4517358,9.97868914 C20.8470313,10.6791428 20.0370228,11.0655733 19.1969099,11.0543982 L19.1969099,9.19972742 L16.787644,11.9631868 L19.1969099,14.7266463 L19.1969099,12.8719755 C20.4548745,12.9274051 21.67747,12.3657607 22.5834619,11.3162379 C23.4894539,10.2667151 24.0008444,8.81966849 23.999999,7.30796326 C23.9800827,5.81241233 23.4595981,4.38947384 22.5559455,3.36010789 C21.6522929,2.33074194 20.4415847,1.78164945 19.1969099,1.83668455 L19.1969099,1.83668455 Z"
          id="形状"></path>
</svg>

<svg width="24" height="24" xmlns="http://www.w3.org/2000/svg"><path d="M4.772 20.235c-.83.001-1.627-.384-2.224-1.076-.6-.672-.94-1.612-.942-2.596.012-.988.35-1.929.942-2.615.61-.692 1.417-1.077 2.255-1.076h1.544c.427 0 .773-.415.773-.927 0-.513-.346-.928-.773-.928H4.803c-1.258-.055-2.48.507-3.386 1.556C.51 13.623-.001 15.07 0 16.581c.05 3.128 2.199 5.616 4.803 5.564V24l2.378-2.838L4.772 18.4v1.836zm8.819-1.836h-3.213c-1.279 0-2.316 1.245-2.316 2.782 0 1.536 1.037 2.782 2.316 2.782h3.213c1.28 0 2.316-1.246 2.316-2.782 0-1.537-1.037-2.782-2.316-2.782zm0 3.71h-3.213c-.426 0-.772-.416-.772-.928s.346-.927.772-.927h3.213c.426 0 .772.415.772.927s-.346.927-.772.927zM13.59 0h-3.213c-.622-.015-1.224.267-1.673.786-.45.518-.708 1.23-.72 1.977.012.748.27 1.459.72 1.977.449.519 1.05.801 1.673.786h3.213c.622.015 1.224-.267 1.673-.786.45-.518.708-1.23.72-1.977-.012-.748-.27-1.459-.72-1.977-.449-.519-1.05-.801-1.673-.786zm0 3.709h-3.213c-.429.01-.786-.394-.803-.909.004-.25.091-.49.242-.663a.722.722 0 0 1 .561-.264h3.213c.426 0 .772.415.772.927s-.346.927-.772.927V3.71zm0 5.49h-3.213c-1.279 0-2.316 1.245-2.316 2.782 0 1.536 1.037 2.782 2.316 2.782h3.213c1.28 0 2.316-1.246 2.316-2.782 0-1.537-1.037-2.782-2.316-2.782zm0 3.71h-3.213c-.429.01-.786-.395-.803-.91.017-.518.372-.927.803-.927h3.213c.429 0 .779.412.787.927-.024.498-.372.883-.787.872v.037zm5.606-11.073H17.56c-.427 0-.772.415-.772.927s.345.927.772.927h1.637c.838-.001 1.646.384 2.255 1.076.602.674.944 1.618.944 2.606 0 .988-.342 1.932-.944 2.606-.605.7-1.415 1.087-2.255 1.075V9.2l-2.41 2.763 2.41 2.764v-1.855c1.258.055 2.48-.506 3.386-1.556.906-1.05 1.418-2.496 1.417-4.008-.02-1.496-.54-2.919-1.444-3.948-.904-1.03-2.114-1.578-3.36-1.523z"/></svg>
